public/images/jobs/location-icon.svg

<svg height="64" viewBox="0 0 43 64" width="43" xmlns="http://www.w3.org/2000/svg"><path d="m20.3733333 55.2533333c.2133334.1066667.4266667.2133334.64.2133334.2133334 0 .4266667-.1066667.64-.2133334.8533334-.64 20.3733334-15.68 20.3733334-34.24 0-11.62666663-9.3866667-21.0133333-21.0133334-21.0133333-11.62666663 0-21.0133333 9.38666667-21.0133333 21.0133333 0 18.4533334 19.52 33.6 20.3733333 34.24zm.64-53.11999997c10.4533334 0 18.88 8.42666667 18.88 18.87999997 0 15.5733334-15.4666666 29.2266667-18.88 32-3.4133333-2.7733333-18.87999997-16.4266666-18.87999997-32 0-10.4533333 8.42666667-18.87999997 18.87999997-18.87999997zm8.5333334 18.13333337c0-4.6933334-3.84-8.5333334-8.5333334-8.5333334-4.6933333 0-8.5333333 3.84-8.5333333 8.5333334 0 4.6933333 3.84 8.5333333 8.5333333 8.5333333 4.6933334 0 8.5333334-3.84 8.5333334-8.5333333zm-14.9333334 0c0-3.52 2.88-6.4 6.4-6.4s6.4 2.88 6.4 6.4-2.88 6.4-6.4 6.4-6.4-2.88-6.4-6.4zm25.3866667 34.56c0 5.12-8.32 9.1733333-18.9866667 9.1733333-10.6666666 0-18.98666663-4.0533333-18.98666663-9.1733333 0-2.9866667 2.88-5.6533334 7.36-7.2533334.53333333.64.96000003 1.1733334 1.49333333 1.7066667-4.26666667 1.3866667-6.72 3.52-6.72 5.5466667 0 3.4133333 6.8266667 7.04 16.8533333 7.04 10.0266667 0 16.8533334-3.6266667 16.8533334-7.04 0-2.0266667-2.56-4.2666667-6.72-5.5466667.5333333-.5333333.96-1.0666667 1.4933333-1.7066667 4.5866667 1.6 7.36 4.2666667 7.36 7.2533334z" fill="#fff"/></svg>

<?xml version="1.0" encoding="UTF-8"?>
<svg width="43px" height="64px" viewBox="0 0 43 64" version="1.1" xmlns="http://www.w3.org/2000/svg" xmlns:xlink="http://www.w3.org/1999/xlink">
    <!-- Generator: Sketch 51.3 (57544) - http://www.bohemiancoding.com/sketch -->
    <title>location-icon</title>
    <desc>Created with Sketch.</desc>
    <defs></defs>
    <g id="Landing-Page" stroke="none" stroke-width="1" fill="none" fill-rule="evenodd">
        <path d="M20.3733333,55.2533333 C20.5866667,55.36 20.8,55.4666667 21.0133333,55.4666667 C21.2266667,55.4666667 21.44,55.36 21.6533333,55.2533333 C22.5066667,54.6133333 42.0266667,39.5733333 42.0266667,21.0133333 C42.0266667,9.38666667 32.64,0 21.0133333,0 C9.38666667,0 0,9.38666667 0,21.0133333 C0,39.4666667 19.52,54.6133333 20.3733333,55.2533333 Z M21.0133333,2.13333333 C31.4666667,2.13333333 39.8933333,10.56 39.8933333,21.0133333 C39.8933333,36.5866667 24.4266667,50.24 21.0133333,53.0133333 C17.6,50.24 2.13333333,36.5866667 2.13333333,21.0133333 C2.13333333,10.56 10.56,2.13333333 21.0133333,2.13333333 Z M29.5466667,20.2666667 C29.5466667,15.5733333 25.7066667,11.7333333 21.0133333,11.7333333 C16.32,11.7333333 12.48,15.5733333 12.48,20.2666667 C12.48,24.96 16.32,28.8 21.0133333,28.8 C25.7066667,28.8 29.5466667,24.96 29.5466667,20.2666667 Z M14.6133333,20.2666667 C14.6133333,16.7466667 17.4933333,13.8666667 21.0133333,13.8666667 C24.5333333,13.8666667 27.4133333,16.7466667 27.4133333,20.2666667 C27.4133333,23.7866667 24.5333333,26.6666667 21.0133333,26.6666667 C17.4933333,26.6666667 14.6133333,23.7866667 14.6133333,20.2666667 Z M40,54.8266667 C40,59.9466667 31.68,64 21.0133333,64 C10.3466667,64 2.02666667,59.9466667 2.02666667,54.8266667 C2.02666667,51.84 4.90666667,49.1733333 9.38666667,47.5733333 C9.92,48.2133333 10.3466667,48.7466667 10.88,49.28 C6.61333333,50.6666667 4.16,52.8 4.16,54.8266667 C4.16,58.24 10.9866667,61.8666667 21.0133333,61.8666667 C31.04,61.8666667 37.8666667,58.24 37.8666667,54.8266667 C37.8666667,52.8 35.3066667,50.56 31.1466667,49.28 C31.68,48.7466667 32.1066667,48.2133333 32.64,47.5733333 C37.2266667,49.1733333 40,51.84 40,54.8266667 Z" id="location-icon" fill="#FFFFFF" fill-rule="nonzero"></path>
    </g>
</svg>
